X: 22694
T: Lambing Storm, The
R: reel
M: 4/4
K: Dmajor
F2 FA c2 Bc|d2 cB cA FE|F2 FA c2 Bc|dc BA B2 f2|
F2 FA c2 Bc|d2 cB cA FE|F2 FA c2 Bc|dc BA B4:|
|:B2 Bc dc Bd|f2 fe fe cB|A2 AB cB Ac|A2 AB cB Ac|
B2 Bc dc Bd|f2 fe fe cB|Af bf fe de|dc BA B2 B2:|

